X: 56
T:Staten Island
% Nottingham Music Database
S:Kevin Briggs, via EF
M:4/4
L:1/4
K:D
P:A
A/2G/2|"D"F/2D/2F/2G/2 AA|"D"d/2f/2e/2d/2 d/2c/2B/2A/2|"G"BG/2B/2 "D"AF/2A/2|\
"Em"GE "A7"EA/2G/2|
"D"F/2D/2F/2G/2 AA|"D"d/2f/2e/2d/2 d/2c/2B/2A/2|"G"dd "A7"e/2f/2g/2e/2|"D"fd d\
:|
P:B
f/2g/2|"D"af/2a/2 "A"ge/2g/2|"D"fd/2f/2 "A"e/2c/2A|"C"=cc e/2f/2g/2e/2|\
"C"=cc e/2f/2g/2e/2|
"D"af/2a/2 "A"ge/2g/2|"D"fd/2f/2 "A"e/2c/2A|"D"dd "A7"e/2f/2g/2e/2|"D"fd d:|


